X:1
T:Scottisch-Mazurka
O:Nederokkerzeel
O:Vlaanderen
B:Lange Wappers Dansboekskens
B:Muziek I
M:C|
L:1/8
K:G
P:A
G>B | d2 B2 G2 B2 | d2 d2 d>B G>B | d2 B2 G2 B2 | A6 F>A |
c2 A2 F2 A2 | c2 c2 c>A F>A | c2 B2 c2 d2 | B4-B>D G>B | 
d2 B2 G2 B2 | d2 d2 d>B G>B | d2 B2 G2 B2 | A6 A2 |
B2 ^c2 d2 e2 | f>e f>g a2 f2 | g>f e>d ^c2 e2 | d2 c2 B2 A2 |
P:B
G2 B2 A3 G | F>G A>B c2 z2 | A2 c2 B3 A | G>A B>c d2 z2 |
d4 d2 d2 | e>d c>B c4 | c4 c2 c2 | d>c B>A B4 |
G2 B2 A3 G | F>G A>B c2 z2 | A2 c2 B3 A | G>A B>c d2 z2 |
d2 d2 B2 B2 | A>B c>d e2 c2 | B2 B2 A2 A>B | G6 ||
